X:246
T: CEST MARS LE GRAND DIEU DES ALARMES
N: B0730B
O: Europa, Mitteleuropa, Deutschland; Frankreich
R: ???
M: 4/4
L: 1/8
K: C
 | G,2G,2G,2A,B, | C2G,2E,2C,2
C4D4 | C8
G,2G,2G,2A,B, | C2G,2E,2C,2
C4D4 | C8
E2E2E4 | A,2A,2A,2C2
D3CB,2A,2 | G,2D2E2D2 | C8
E2E2E4 | A,2A,2A,2C2
D3CB,2A,2 | G,2D2E2D2 | C8

